src/pos-icons/tower-beach.svg

<svg height="24" viewBox="0 0 24 24" width="24" xmlns="http://www.w3.org/2000/svg"><path d="m17 4v4h1v2h-.36l3.36 13h-2.07l-.56-2.17-6.37-3.68-6.37 3.68-.56 2.17h-2.07l3.36-13h-.36v-2h1v-4h-1v-1l12-2v3zm-9.72 10.43-.95 3.69 3.67-2.12zm8.29-4.43h-7.14l-.63 2.42 4.2 2.43 4.2-2.43zm2.1 8.12-.95-3.69-2.72 1.57z"/></svg>

<?xml version="1.0" encoding="UTF-8"?><!DOCTYPE svg PUBLIC "-//W3C//DTD SVG 1.1//EN" "http://www.w3.org/Graphics/SVG/1.1/DTD/svg11.dtd"><svg xmlns="http://www.w3.org/2000/svg" xmlns:xlink="http://www.w3.org/1999/xlink" version="1.1" id="mdi-tower-beach" width="24" height="24" viewBox="0 0 24 24"><path d="M17,4V8H18V10H17.64L21,23H18.93L18.37,20.83L12,17.15L5.63,20.83L5.07,23H3L6.36,10H6V8H7V4H6V3L18,1V4H17M7.28,14.43L6.33,18.12L10,16L7.28,14.43M15.57,10H8.43L7.8,12.42L12,14.85L16.2,12.42L15.57,10M17.67,18.12L16.72,14.43L14,16L17.67,18.12Z" /></svg>
